Newaita-dark/actions/24/network-connect.svg

<svg height="24" viewBox="0 0 24 24" width="24" xmlns="http://www.w3.org/2000/svg"><path d="m11.90625 2.171875c-5.496094 0-9.921875 4.425781-9.921875 9.921875 0 5.5 4.425781 9.925781 9.921875 9.925781 5.5 0 9.925781-4.425781 9.925781-9.925781 0-5.496094-4.425781-9.921875-9.925781-9.921875zm0 1.984375c.5625 0 1.109375.058594 1.636719.167969.445312.894531.816406 1.832031 1.105469 2.808593h-5.484376c.289063-.976562.660157-1.914062 1.105469-2.808593.53125-.109375 1.078125-.167969 1.636719-.167969zm-2.949219.5625c-.339843.777344-.628906 1.585938-.859375 2.414062h-2.394531c.847656-1.0625 1.96875-1.902343 3.253906-2.414062zm5.902344 0c1.285156.511719 2.402344 1.351562 3.253906 2.414062h-2.394531c-.234375-.828124-.519531-1.636718-.859375-2.414062zm-9.835937 3.40625h2.828124c-.246093 1.121094-.390624 2.285156-.421874 3.472656h-3.445313c.078125-1.261718.445313-2.441406 1.039063-3.472656zm3.878906 0h6.007812c.261719 1.121094.410156 2.28125.445313 3.472656h-6.894531c.03125-1.191406.183593-2.351562.441406-3.472656zm7.0625 0h2.824218c.59375 1.03125.964844 2.210938 1.042969 3.472656h-3.449219c-.03125-1.1875-.171874-2.351562-.417968-3.472656zm-11.980469 4.464844h3.445313c.03125 1.191406.175781 2.351562.421874 3.472656h-2.828124c-.59375-1.03125-.960938-2.210938-1.039063-3.472656zm4.476563 0h6.894531c-.035157 1.195312-.183594 2.355468-.445313 3.472656h-6.007812c-.257813-1.117188-.410156-2.277344-.441406-3.472656zm7.921874 0h3.449219c-.078125 1.261718-.449219 2.441406-1.042969 3.472656h-2.824218c.246094-1.121094.386718-2.28125.417968-3.472656zm-10.679687 4.464844h2.394531c.230469.832031.519532 1.636718.859375 2.414062-1.285156-.511719-2.40625-1.347656-3.253906-2.414062zm3.460937 0h5.484376c-.289063.976562-.660157 1.917968-1.105469 2.8125-.527344.109374-1.074219.164062-1.636719.164062-.558594 0-1.105469-.054688-1.636719-.164062-.445312-.894532-.816406-1.835938-1.105469-2.8125zm6.554688 0h2.394531c-.851562 1.066406-1.96875 1.902343-3.253906 2.414062.339844-.777344.625-1.582031.859375-2.414062zm0 0" fill="#e0e0e0"/></svg>

<?xml version="1.0" encoding="UTF-8"?>
<svg xmlns="http://www.w3.org/2000/svg" xmlns:xlink="http://www.w3.org/1999/xlink" width="24px" height="24px" viewBox="0 0 24 24" version="1.1">
<g id="surface1">
<path style=" stroke:none;fill-rule:nonzero;fill:rgb(87.843138%,87.843138%,87.843138%);fill-opacity:1;" d="M 11.90625 2.171875 C 6.410156 2.171875 1.984375 6.597656 1.984375 12.09375 C 1.984375 17.59375 6.410156 22.019531 11.90625 22.019531 C 17.40625 22.019531 21.832031 17.59375 21.832031 12.09375 C 21.832031 6.597656 17.40625 2.171875 11.90625 2.171875 Z M 11.90625 4.15625 C 12.46875 4.15625 13.015625 4.214844 13.542969 4.324219 C 13.988281 5.21875 14.359375 6.15625 14.648438 7.132812 L 9.164062 7.132812 C 9.453125 6.15625 9.824219 5.21875 10.269531 4.324219 C 10.800781 4.214844 11.347656 4.15625 11.90625 4.15625 Z M 8.957031 4.71875 C 8.617188 5.496094 8.328125 6.304688 8.097656 7.132812 L 5.703125 7.132812 C 6.550781 6.070312 7.671875 5.230469 8.957031 4.71875 Z M 14.859375 4.71875 C 16.144531 5.230469 17.261719 6.070312 18.113281 7.132812 L 15.71875 7.132812 C 15.484375 6.304688 15.199219 5.496094 14.859375 4.71875 Z M 5.023438 8.125 L 7.851562 8.125 C 7.605469 9.246094 7.460938 10.410156 7.429688 11.597656 L 3.984375 11.597656 C 4.0625 10.335938 4.429688 9.15625 5.023438 8.125 Z M 8.902344 8.125 L 14.910156 8.125 C 15.171875 9.246094 15.320312 10.40625 15.355469 11.597656 L 8.460938 11.597656 C 8.492188 10.40625 8.644531 9.246094 8.902344 8.125 Z M 15.964844 8.125 L 18.789062 8.125 C 19.382812 9.15625 19.753906 10.335938 19.832031 11.597656 L 16.382812 11.597656 C 16.351562 10.410156 16.210938 9.246094 15.964844 8.125 Z M 3.984375 12.589844 L 7.429688 12.589844 C 7.460938 13.78125 7.605469 14.941406 7.851562 16.0625 L 5.023438 16.0625 C 4.429688 15.03125 4.0625 13.851562 3.984375 12.589844 Z M 8.460938 12.589844 L 15.355469 12.589844 C 15.320312 13.785156 15.171875 14.945312 14.910156 16.0625 L 8.902344 16.0625 C 8.644531 14.945312 8.492188 13.785156 8.460938 12.589844 Z M 16.382812 12.589844 L 19.832031 12.589844 C 19.753906 13.851562 19.382812 15.03125 18.789062 16.0625 L 15.964844 16.0625 C 16.210938 14.941406 16.351562 13.78125 16.382812 12.589844 Z M 5.703125 17.054688 L 8.097656 17.054688 C 8.328125 17.886719 8.617188 18.691406 8.957031 19.46875 C 7.671875 18.957031 6.550781 18.121094 5.703125 17.054688 Z M 9.164062 17.054688 L 14.648438 17.054688 C 14.359375 18.03125 13.988281 18.972656 13.542969 19.867188 C 13.015625 19.976562 12.46875 20.03125 11.90625 20.03125 C 11.347656 20.03125 10.800781 19.976562 10.269531 19.867188 C 9.824219 18.972656 9.453125 18.03125 9.164062 17.054688 Z M 15.71875 17.054688 L 18.113281 17.054688 C 17.261719 18.121094 16.144531 18.957031 14.859375 19.46875 C 15.199219 18.691406 15.484375 17.886719 15.71875 17.054688 Z M 15.71875 17.054688 "/>
</g>
</svg>
